X: 33177
T: Private Ass And Cart
R: reel
M: 4/4
K: Dmajor
F3A GE E2|FD D2 ABAG|F3D GE E2|A2 GE FD D2|
F3A GE E2|FDDF ABAG|F3A GEFG|A2 GE FD D2||
(3Bcd ec d2 ed|cAGE A3d|(3Bcd ec dfed|cAGE FD D2|
(3Bcd ec d2 ed|cAGE A3d|c2 cd e3d|cAGE ED D2||

